assets/svg/icon-gear.svg

<?xml version="1.0" encoding="UTF-8" standalone="no"?>
<svg width="100px" height="97px" viewBox="0 0 100 97" version="1.1" xmlns="http://www.w3.org/2000/svg" xmlns:xlink="http://www.w3.org/1999/xlink">
    <!-- Generator: Sketch 39.1 (31720) - http://www.bohemiancoding.com/sketch -->
    <title>Page 1</title>
    <desc>Created with Sketch.</desc>
    <defs>
        <polygon id="path-1" points="0 -0.000108766135 0 80.8493849 77.2639189 80.8493849 77.2639189 -0.000108766135 1.47537418e-20 -0.000108766135"></polygon>
    </defs>
    <g id="Page-1" stroke="none" stroke-width="1" fill="none" fill-rule="evenodd">
        <g id="Monitaure_desktop-Copy" transform="translate(-679.000000, -1558.000000)">
            <g id="Page-1" transform="translate(679.000000, 1558.000000)">
                <g id="Group-3" transform="translate(0.000000, 15.509688)">
                    <mask id="mask-2" fill="white">
                        <use xlink:href="#path-1"></use>
                    </mask>
                    <g id="Clip-2"></g>
                    <path d="M38.64237,21.8481073 C28.4375149,21.8481073 20.1355921,30.1429753 20.1355921,40.3383503 C20.1355921,50.5340878 28.4375149,58.8289558 38.64237,58.8289558 C48.847225,58.8289558 57.1491479,50.5340878 57.1491479,40.3383503 C57.1491479,30.1429753 48.847225,21.8481073 38.64237,21.8481073 L38.64237,21.8481073 Z M38.64237,60.6417247 C27.4370603,60.6417247 18.3212021,51.5336485 18.3212021,40.3383503 C18.3212021,29.143052 27.4370603,20.0353384 38.64237,20.0353384 C49.8476797,20.0353384 58.9635379,29.143052 58.9635379,40.3383503 C58.9635379,51.5336485 49.8476797,60.6417247 38.64237,60.6417247 L38.64237,60.6417247 Z M17.3831625,61.5194674 L17.8810311,61.9922375 C21.1316922,65.0757575 25.3653898,67.5570756 29.8019362,68.9782864 L30.4322553,69.1802288 L30.4322553,77.3996857 C30.4322553,78.1799014 31.4298069,79.036616 32.3384534,79.036616 L44.9462865,79.036616 C45.7337318,79.036616 46.3988872,78.2868548 46.3988872,77.3996857 L46.3988872,69.1802288 L47.0288434,68.9782864 C51.6188872,67.5077682 56.0463616,64.961553 59.1765472,61.9922375 L59.6671583,61.5263559 L66.8300071,65.6460546 C67.0637005,65.7809246 67.3282386,65.8516226 67.5960425,65.8516226 C68.1461656,65.8519851 68.6570978,65.5586791 68.9296192,65.0873592 L75.2386161,54.1781158 C75.4432792,53.8239008 75.4980738,53.4116771 75.3932021,53.0172186 C75.2883303,52.6234852 75.036493,52.2950115 74.6837756,52.0912563 L67.5452396,47.9737329 L67.7030916,47.3156978 C68.2484972,45.0384975 68.5253731,42.6909618 68.5253731,40.3383503 C68.5253731,37.9857388 68.2484972,35.638203 67.7030916,33.3610027 L67.5452396,32.7029676 L74.6834127,28.5854443 C75.0372188,28.3816891 75.2905076,28.0517651 75.3961051,27.6576691 C75.5020655,27.2639357 75.4472709,26.8520746 75.2433335,26.4982221 L68.9394169,15.5893414 C68.6668955,15.1180214 68.1585034,14.825078 67.6127349,14.825078 C67.3467454,14.825078 67.0829331,14.895776 66.8503283,15.0299209 L59.6667954,19.1499821 L59.1765472,18.684463 C56.0463616,15.7151475 51.6188872,13.1689323 47.0288434,11.6984142 L46.3988872,11.4964717 L46.3988872,3.27701488 C46.3988872,2.42863903 45.7878006,1.81266015 44.9462865,1.81266015 L32.3384534,1.81266015 C31.4751666,1.81266015 30.4322553,2.46598207 30.4322553,3.27701488 L30.4322553,11.4964717 L29.8019362,11.6984142 C25.3653898,13.119625 21.1320551,15.6009431 17.8810311,18.684463 L17.3864284,19.1539702 L10.335346,15.027383 C10.1041927,14.8936007 9.85162961,14.825078 9.5896317,14.825078 C9.05765255,14.825078 8.57466194,15.1107704 8.29814891,15.5893414 L2.01854515,26.4967719 C1.81497059,26.8495368 1.76235328,27.2599476 1.86976517,27.6540436 C1.97790282,28.0492272 2.23336893,28.3802388 2.58898936,28.5854443 L9.73333139,32.702605 L9.57547946,33.3610027 C9.03188822,35.6302268 8.75646382,37.9774 8.75646382,40.3383503 C8.75646382,42.6869737 9.03333973,45.0345094 9.58019687,47.3156978 L9.73768592,47.9737329 L2.60023858,52.0912563 C2.24679541,52.2950115 1.99350657,52.6245729 1.88790907,53.0190314 C1.78231157,53.4131274 1.83674327,53.8246259 2.04104359,54.1784784 L8.34496017,65.0873592 C8.61748154,65.5586791 9.12587362,65.8516226 9.67200501,65.8516226 C9.93799458,65.8516226 10.2018069,65.7809246 10.4344117,65.6467797 L17.3831625,61.5194674 Z M44.9462865,80.8493849 L32.3384534,80.8493849 C30.6176859,80.8493849 28.6178653,79.3426114 28.6178653,77.3996857 L28.6178653,70.495574 C24.3816275,69.0420958 20.3496901,66.6811456 17.1367683,63.7745519 L11.3514044,67.2108367 C10.8335775,67.509581 10.2558757,67.6643915 9.67200501,67.6643915 C8.4795879,67.6643915 7.36918123,67.0241215 6.77369844,65.9937436 L0.469781856,55.0848629 C0.0230790407,54.3118982 -0.0955820647,53.4116771 0.135208342,52.5498868 C0.366361627,51.6877339 0.919750574,50.9673395 1.69340647,50.5213984 L7.66456392,47.0764123 C7.18483921,44.8659219 6.94207383,42.6024986 6.94207383,40.3383503 C6.94207383,38.0644129 7.1833877,35.8009897 7.66020938,33.6006508 L1.68252013,30.1553022 C0.909227112,29.7097236 0.354023775,28.9907794 0.11924171,28.1308018 C-0.116628989,27.2668362 -0.000508029197,26.3651649 0.446557664,25.5918377 L6.72616142,14.6844071 C7.32236997,13.6525791 8.41935016,13.0123091 9.5896317,13.0123091 C10.1662448,13.0123091 10.7392292,13.1671195 11.2472584,13.460063 L17.1335024,16.905049 C20.3471499,13.9970051 24.3805389,11.6349672 28.6178653,10.1811266 L28.6178653,3.27701488 C28.6178653,1.34569088 30.5784951,-0.000108766135 32.3384534,-0.000108766135 L44.9462865,-0.000108766135 C46.7780947,-0.000108766135 48.2132772,1.43959231 48.2132772,3.27701488 L48.2132772,10.180764 C52.5914002,11.6770235 56.7953418,14.0923568 59.9277047,16.9101248 L65.9449477,13.4589753 C66.4511625,13.1671195 67.0285014,13.0123091 67.6127349,13.0123091 C68.8047892,13.0123091 69.9151958,13.6525791 70.5106786,14.6829569 L76.8145952,25.5918377 C77.2609351,26.3648024 77.3795962,27.2650234 77.1488058,28.1268137 C76.9172897,28.9889666 76.3642636,29.709361 75.5906077,30.1553022 L69.6187245,33.6006508 C70.0973606,35.8078782 70.3397631,38.0709389 70.3397631,40.3383503 C70.3397631,42.6057616 70.0973606,44.8688223 69.6187245,47.0760498 L75.5909706,50.5213984 C76.3646265,50.9673395 76.9169268,51.688459 77.1466286,52.5516996 C77.3759675,53.4127648 77.2562177,54.3122607 76.8095149,55.0848629 L70.5008809,65.9941062 C69.9053981,67.0241215 68.7924513,67.6643915 67.5960425,67.6643915 L67.5956797,67.6643915 C67.0099946,67.6643915 66.4319299,67.509581 65.9239007,67.2166376 L59.9269789,63.7673009 C56.7946161,66.5847063 52.5910373,68.9996771 48.2132772,70.4959365 L48.2132772,77.3996857 C48.2132772,79.3020054 46.7476129,80.8493849 44.9462865,80.8493849 L44.9462865,80.8493849 Z" id="Fill-1" fill="#40D89F" mask="url(#mask-2)"></path>
                </g>
                <g id="Group-6" transform="translate(67.132430, 0.282429)" fill="#40D89F">
                    <path d="M6.22484546,16.070269 C10.7807787,17.6778324 14.3979466,21.291406 16.0069477,25.8432687 C17.6159487,21.291406 21.2327537,17.6778324 25.788687,16.070269 C21.2327537,14.4627055 17.6159487,10.8487694 16.0069477,6.29690662 C14.3979466,10.8487694 10.7807787,14.4627055 6.22484546,16.070269 M16.0069477,32.060341 C15.5058131,32.060341 15.0997527,31.6542808 15.0997527,31.1539566 C15.0997527,23.3365719 8.73414682,16.9766534 0.909771429,16.9766534 C0.408636913,16.9766534 0.00257643379,16.5709557 0.00257643379,16.070269 C0.00257643379,15.5695822 0.408636913,15.1638845 0.909771429,15.1638845 C8.73414682,15.1638845 15.0997527,8.80396603 15.0997527,0.986581355 C15.0997527,0.48589458 15.5058131,0.0801968969 16.0069477,0.0801968969 C16.5080822,0.0801968969 16.9141426,0.48589458 16.9141426,0.986581355 C16.9141426,8.80396603 23.2797485,15.1638845 31.1041239,15.1638845 C31.6048955,15.1638845 32.0113189,15.5695822 32.0113189,16.070269 C32.0113189,16.5709557 31.6048955,16.9766534 31.1041239,16.9766534 C23.2797485,16.9766534 16.9141426,23.3365719 16.9141426,31.1539566 C16.9141426,31.6542808 16.5080822,32.060341 16.0069477,32.060341" id="Fill-4"></path>
                </g>
            </g>
        </g>
    </g>
</svg>

<svg width="100" height="97" viewBox="0 0 100 97" xmlns="http://www.w3.org/2000/svg" xmlns:xlink="http://www.w3.org/1999/xlink"><title>Page 1</title><defs><path id="a" d="M0 0v80.85h77.264V0H0z"/></defs><g fill="none" fill-rule="evenodd"><g transform="translate(0 15.51)"><mask id="b" fill="#fff"><use xlink:href="#a"/></mask><path d="M38.642 21.848c-10.204 0-18.506 8.295-18.506 18.49 0 10.196 8.302 18.491 18.506 18.491 10.205 0 18.507-8.295 18.507-18.49 0-10.196-8.302-18.49-18.507-18.49zm0 38.794c-11.205 0-20.32-9.108-20.32-20.304 0-11.195 9.115-20.303 20.32-20.303 11.206 0 20.322 9.108 20.322 20.303 0 11.196-9.116 20.304-20.322 20.304zm-21.259.877l.498.473c3.25 3.084 7.484 5.565 11.92 6.986l.631.202v8.22c0 .78.998 1.637 1.906 1.637h12.608c.788 0 1.453-.75 1.453-1.637v-8.22l.63-.202c4.59-1.47 9.017-4.016 12.148-6.986l.49-.466 7.163 4.12a1.542 1.542 0 0 0 2.1-.559l6.309-10.909a1.523 1.523 0 0 0-.555-2.087l-7.139-4.117.158-.658a29.992 29.992 0 0 0 0-13.955l-.158-.658 7.138-4.118c.354-.203.608-.533.713-.927a1.518 1.518 0 0 0-.153-1.16L68.94 15.59a1.529 1.529 0 0 0-2.09-.56l-7.182 4.121-.49-.466c-3.13-2.969-7.558-5.515-12.148-6.986l-.63-.202V3.277c0-.848-.611-1.464-1.453-1.464H32.338c-.863 0-1.906.653-1.906 1.464v8.22l-.63.201c-4.437 1.422-8.67 3.903-11.921 6.986l-.495.47-7.05-4.127a1.476 1.476 0 0 0-.746-.202c-.532 0-1.015.286-1.292.764l-6.28 10.908a1.505 1.505 0 0 0-.148 1.157c.108.395.363.726.719.931l7.144 4.118-.158.658a29.983 29.983 0 0 0-.819 6.977c0 2.349.277 4.697.824 6.978l.158.658L2.6 52.09a1.517 1.517 0 0 0-.712.928c-.106.394-.051.806.153 1.16l6.304 10.908a1.529 1.529 0 0 0 2.09.56l6.948-4.128zm27.563 19.33H32.338c-1.72 0-3.72-1.506-3.72-3.45v-6.903c-4.236-1.454-8.268-3.815-11.481-6.721L11.35 67.21a3.358 3.358 0 0 1-1.679.453 3.356 3.356 0 0 1-2.898-1.67L.47 55.084a3.318 3.318 0 0 1-.335-2.534 3.318 3.318 0 0 1 1.558-2.029l5.972-3.445A31.846 31.846 0 0 1 7.66 33.6l-5.978-3.445a3.337 3.337 0 0 1-1.564-2.024 3.3 3.3 0 0 1 .328-2.54l6.28-10.907a3.326 3.326 0 0 1 2.863-1.672c.576 0 1.15.155 1.657.448l5.887 3.445c3.213-2.908 7.247-5.27 11.484-6.724V3.277c0-1.931 1.96-3.277 3.72-3.277h12.608c1.832 0 3.267 1.44 3.267 3.277v6.904c4.378 1.496 8.582 3.911 11.715 6.73l6.017-3.452a3.346 3.346 0 0 1 4.566 1.224l6.304 10.909a3.32 3.32 0 0 1 .334 2.535 3.319 3.319 0 0 1-1.558 2.028l-5.972 3.446a31.823 31.823 0 0 1 0 13.475l5.972 3.445a3.31 3.31 0 0 1 1.556 2.03c.229.862.11 1.761-.337 2.534l-6.31 10.91a3.362 3.362 0 0 1-2.904 1.67 3.351 3.351 0 0 1-1.672-.448l-5.997-3.45c-3.132 2.818-7.336 5.233-11.714 6.729V77.4c0 1.902-1.465 3.45-3.267 3.45z" fill="#40D89F" mask="url(#b)"/></g><path d="M73.357 16.353a16.08 16.08 0 0 1 9.782 9.773 16.08 16.08 0 0 1 9.782-9.773 16.08 16.08 0 0 1-9.782-9.774 16.081 16.081 0 0 1-9.782 9.774m9.782 15.99a.907.907 0 0 1-.907-.907c0-7.817-6.365-14.177-14.19-14.177a.907.907 0 1 1 0-1.813c7.825 0 14.19-6.36 14.19-14.177a.907.907 0 0 1 1.815 0c0 7.817 6.365 14.177 14.19 14.177a.907.907 0 1 1 0 1.813c-7.825 0-14.19 6.36-14.19 14.177 0 .5-.406.907-.908.907" fill="#40D89F"/></g></svg>
